icons/revolt-dark.svg

<svg width="256" height="256" viewBox="0 0 256 256" fill="none" xmlns="http://www.w3.org/2000/svg">
<rect width="256" height="256" rx="60" fill="#282828"/>
<path d="M161.679 99.1483C161.679 111.968 154.797 119.664 140.107 119.664H115.784V79.0989H140.11C154.797 79.0989 161.679 87.0241 161.679 99.1483ZM53 46L76.5471 79.1772V209.623H115.789V147.864H125.2L158.709 209.636H203L165.822 144.833C176.202 142.267 185.409 136.177 191.917 127.573C198.426 118.968 201.847 108.364 201.614 97.5157C201.614 69.0763 181.88 46 142.406 46H53Z" fill="#FF4654"/>
</svg>

<svg xmlns="http://www.w3.org/2000/svg" width="256" height="256" fill="none"><rect width="256" height="256" fill="#282828" rx="60"/><path fill="#FF4654" d="M161.679 99.148c0 12.82-6.882 20.516-21.572 20.516h-24.323V79.099h24.326c14.687 0 21.569 7.925 21.569 20.05M53 46l23.547 33.177v130.446h39.242v-61.759h9.411l33.509 61.772H203l-37.178-64.803c10.38-2.566 19.587-8.656 26.095-17.26 6.509-8.605 9.93-19.209 9.697-30.057 0-28.44-19.734-51.516-59.208-51.516z"/></svg>
